!!! OTL: Bai/,Ti/,Ma^ (White hoof Horse)
!!! YEC: Copyright 2001, Chia-wei Lee
!! For Voice Only
**kern	**silbe
*clefG2	*LXinhua
*E:	*ping-ying
*M3/4	*
=5	=5
8e	Na\
8f#	Li^
4g#	You^
=6	=6
(8b	Bai/
8g)	|
(8b	Ti/
8cc#)	|
=7	=7
(4.ee	Ma^
8dd#)	|
=8	=8
8ff#	Pou^
8ee	Qi^
8dd#	Lu\
8cc#	Lai/
=9	=9
8g#	Na\
8a	Yang\
[4b	Wen^
=10	=10
4b	|
8b]	|
8r	.
=11	=11
8e	Na\
8f#	Li^
4g#	You^
=12	=12
8b	Ku\
8g#	Da/
(8b	Sha-
8cc#)	|
=13	=13
(8ee	wei/
8dd#)	|
8ff#	Xiao\
8ee	De
*M3/4	*
=14	=14
(8dd#	Yan^
8cc#)	|
(4.b	Jing-
8g)	|
=15	=15
8a	Na\
8g#	Li^
(8a	Duo-
8b)	|
4g#	Qing/
=16	=16
8g#	A-
8f#	Ha-
8g#	A-
8cc#	Wu-
(8b	Ku\
8g#)	|
*M2/4	*
=17	=17
(4.f#	Da/
8d#)	|
*M(4/4)	*
=18	=18
[2e	Sha-
4e]	|
4r	.
*-	*-
